Costumes/bell1.svg

<?xml version="1.0" encoding="UTF-8" standalone="no"?>
<svg
   version="1.1"
   width="69.127197"
   height="79.730644"
   id="svg8"
   sodipodi:docname="bell1.svg"
   xmlns:inkscape="http://www.inkscape.org/namespaces/inkscape"
   xmlns:sodipodi="http://sodipodi.sourceforge.net/DTD/sodipodi-0.dtd"
   xmlns="http://www.w3.org/2000/svg"
   xmlns:svg="http://www.w3.org/2000/svg">
  <defs
     id="defs12" />
  <sodipodi:namedview
     id="namedview10"
     pagecolor="#ffffff"
     bordercolor="#000000"
     borderopacity="0.25"
     inkscape:showpageshadow="2"
     inkscape:pageopacity="0.0"
     inkscape:pagecheckerboard="0"
     inkscape:deskcolor="#d1d1d1" />
  <!-- Exported by Scratch - http://scratch.mit.edu/ -->
  <g
     id="ID0.25774545641615987"
     transform="matrix(0.69833732,0,0,0.69833732,-2.1475231,-1.0785759)">
    <path
       id="ID0.8359734453260899"
       fill="#ffd351"
       stroke="none"
       stroke-linecap="round"
       d="m 244,126.5 c 12.408,0.189 25.027,6.511 33.75,15 6.08,6.222 5.105,16.526 6.5,25 1.457,8.857 0.29,17.96 2,26.5 1.15,6.098 3.934,11.512 6.5,17 2.721,5.823 11.676,11.184 9,17 -3.324,7.798 -13.713,10.423 -22,12.5 -12.956,3.245 -26.648,2.74 -40,3 -9.246,-0.244 -18.483,-1.125 -27.5,-3 -8.378,-1.734 -17.198,-3.098 -24.5,-7.5 -2.614,-1.604 -3.528,-6.267 -2.5,-9.5 1.911,-5.218 7.906,-8.203 10.5,-13.5 2.826,-5.77 4.168,-12.208 5.5,-18.5 1.544,-7.176 2.151,-14.989 3.5,-22.5 1.626,-9.013 -0.895,-20.324 5.5,-27 8.338,-8.907 21.506,-14.685 33.75,-14.5 z"
       transform="matrix(0.83915097,0.1936707,-0.1936707,0.83915097,-108.15,-139.45)" />
    <path
       id="ID0.908154658973217"
       fill="#ffd351"
       stroke="none"
       d="m 243,112 c 1.379,0 2.629,1.205 3.535,3.151 0.905,1.946 1.465,4.633 1.465,7.599 0,2.966 -0.56,5.653 -1.465,7.599 -0.906,1.946 -2.156,3.151 -3.535,3.151 -1.379,0 -2.629,-1.205 -3.535,-3.151 -0.905,-1.946 -1.465,-4.633 -1.465,-7.599 0,-2.966 0.56,-5.653 1.465,-7.599 C 240.371,113.205 241.621,112 243,112 Z"
       transform="matrix(0.83915097,0.1936707,-0.1936707,0.83915097,-108.15,-139.45)" />
    <path
       id="ID0.7001172280870378"
       fill="#eac24d"
       stroke="none"
       d="m 247,228 c 15.312,0 29.187,1.569 39.234,4.103 10.047,2.535 16.266,6.035 16.266,9.897 0,3.862 -6.219,7.362 -16.266,9.897 C 276.187,254.431 262.312,256 247,256 231.688,256 217.813,254.431 207.766,251.897 197.719,249.362 191.5,245.862 191.5,242 c 0,-3.862 6.219,-7.362 16.266,-9.897 C 217.813,229.569 231.688,228 247,228 Z"
       transform="matrix(0.83915097,0.1936707,-0.1936707,0.83915097,-107.5,-153.9)" />
    <path
       id="ID0.7265239926055074"
       fill="#ffd351"
       stroke="none"
       d="m 244,215 c 1.242,0 2.367,0.98 3.181,2.564 0.815,1.584 1.319,3.772 1.319,6.186 0,2.414 -0.504,4.602 -1.319,6.186 -0.814,1.584 -1.939,2.564 -3.181,2.564 -1.242,0 -2.367,-0.98 -3.181,-2.564 -0.815,-1.584 -1.319,-3.772 -1.319,-6.186 0,-2.414 0.504,-4.602 1.319,-6.186 C 241.633,215.98 242.758,215 244,215 Z"
       transform="matrix(0.83915097,0.1936707,-0.1936707,0.83915097,-108.15,-139.45)" />
    <path
       id="ID0.635630413889885"
       fill="#fff1c8"
       stroke="none"
       stroke-linecap="round"
       d="m 219.25,142 c 3.935,-5.574 12.452,-7.735 19.5,-8.5 3.245,-0.349 7.727,3.246 7,5.5 -0.273,2.496 -6.008,1.965 -9,4 -4.654,3.204 -9.591,6.65 -12.5,11.5 -3.396,5.668 -1.936,13.411 -6,18.5 -1.255,1.933 -6.561,0.522 -6.5,-2 0.244,-9.97 1.767,-20.839 7.5,-29 z"
       transform="matrix(0.83915097,0.1936707,-0.1936707,0.83915097,-109.3,-138.4)" />
  </g>
</svg>

<svg version="1.1" width="122" height="123" xmlns="http://www.w3.org/2000/svg" xmlns:xlink="http://www.w3.org/1999/xlink">
  <!-- Exported by Scratch - http://scratch.mit.edu/ -->
  <g id="ID0.25774545641615987" transform="matrix(0.6983373165130615, 0, 0, 0.6983373165130615, 0.8, 0.45)">
    <path id="ID0.8359734453260899" fill="#FFD351" stroke="none" stroke-linecap="round" d="M 244 126.500 C 256.408 126.689 269.027 133.011 277.750 141.500 C 283.830 147.722 282.855 158.026 284.250 166.500 C 285.707 175.357 284.540 184.460 286.250 193 C 287.400 199.098 290.184 204.512 292.750 210 C 295.471 215.823 304.426 221.184 301.750 227 C 298.426 234.798 288.037 237.423 279.750 239.500 C 266.794 242.745 253.102 242.240 239.750 242.500 C 230.504 242.256 221.267 241.375 212.250 239.500 C 203.872 237.766 195.052 236.402 187.750 232 C 185.136 230.396 184.222 225.733 185.250 222.500 C 187.161 217.282 193.156 214.297 195.750 209 C 198.576 203.230 199.918 196.792 201.250 190.500 C 202.794 183.324 203.401 175.511 204.750 168 C 206.376 158.987 203.855 147.676 210.250 141 C 218.588 132.093 231.756 126.315 244 126.500 Z " transform="matrix(0.8391509652137756, 0.19367070496082306, -0.19367070496082306, 0.8391509652137756, -108.15, -139.45)"/>
    <path id="ID0.908154658973217" fill="#FFD351" stroke="none" d="M 243 112 C 244.379 112 245.629 113.205 246.535 115.151 C 247.440 117.097 248 119.784 248 122.750 C 248 125.716 247.440 128.403 246.535 130.349 C 245.629 132.295 244.379 133.500 243 133.500 C 241.621 133.500 240.371 132.295 239.465 130.349 C 238.560 128.403 238 125.716 238 122.750 C 238 119.784 238.560 117.097 239.465 115.151 C 240.371 113.205 241.621 112 243 112 Z " transform="matrix(0.8391509652137756, 0.19367070496082306, -0.19367070496082306, 0.8391509652137756, -108.15, -139.45)"/>
    <path id="ID0.7001172280870378" fill="#EAC24D" stroke="none" d="M 247 228 C 262.312 228 276.187 229.569 286.234 232.103 C 296.281 234.638 302.500 238.138 302.500 242 C 302.500 245.862 296.281 249.362 286.234 251.897 C 276.187 254.431 262.312 256 247 256 C 231.688 256 217.813 254.431 207.766 251.897 C 197.719 249.362 191.500 245.862 191.500 242 C 191.500 238.138 197.719 234.638 207.766 232.103 C 217.813 229.569 231.688 228 247 228 Z " transform="matrix(0.8391509652137756, 0.19367070496082306, -0.19367070496082306, 0.8391509652137756, -107.5, -153.9)"/>
    <path id="ID0.7265239926055074" fill="#FFD351" stroke="none" d="M 244 215 C 245.242 215 246.367 215.980 247.181 217.564 C 247.996 219.148 248.500 221.336 248.500 223.750 C 248.500 226.164 247.996 228.352 247.181 229.936 C 246.367 231.520 245.242 232.500 244 232.500 C 242.758 232.500 241.633 231.520 240.819 229.936 C 240.004 228.352 239.500 226.164 239.500 223.750 C 239.500 221.336 240.004 219.148 240.819 217.564 C 241.633 215.980 242.758 215 244 215 Z " transform="matrix(0.8391509652137756, 0.19367070496082306, -0.19367070496082306, 0.8391509652137756, -108.15, -139.45)"/>
    <path id="ID0.635630413889885" fill="#FFF1C8" stroke="none" stroke-linecap="round" d="M 219.250 142 C 223.185 136.426 231.702 134.265 238.750 133.500 C 241.995 133.151 246.477 136.746 245.750 139 C 245.477 141.496 239.742 140.965 236.750 143 C 232.096 146.204 227.159 149.650 224.250 154.500 C 220.854 160.168 222.314 167.911 218.250 173 C 216.995 174.933 211.689 173.522 211.750 171 C 211.994 161.030 213.517 150.161 219.250 142 Z " transform="matrix(0.8391509652137756, 0.19367070496082306, -0.19367070496082306, 0.8391509652137756, -109.3, -138.4)"/>
  </g>
</svg>
